src/pos-icons/controller-classic.svg

<svg height="24" viewBox="0 0 24 24" width="24" xmlns="http://www.w3.org/2000/svg"><path d="m6 7h12a5 5 0 0 1 5 5 5 5 0 0 1 -5 5c-1.64 0-3.09-.79-4-2h-4c-.91 1.21-2.36 2-4 2a5 5 0 0 1 -5-5 5 5 0 0 1 5-5m13.75 2.5a1.25 1.25 0 0 0 -1.25 1.25 1.25 1.25 0 0 0 1.25 1.25 1.25 1.25 0 0 0 1.25-1.25 1.25 1.25 0 0 0 -1.25-1.25m-2.5 2.5a1.25 1.25 0 0 0 -1.25 1.25 1.25 1.25 0 0 0 1.25 1.25 1.25 1.25 0 0 0 1.25-1.25 1.25 1.25 0 0 0 -1.25-1.25m-12.25-3v2h-2v2h2v2h2v-2h2v-2h-2v-2z"/></svg>

<?xml version="1.0" encoding="UTF-8"?><!DOCTYPE svg PUBLIC "-//W3C//DTD SVG 1.1//EN" "http://www.w3.org/Graphics/SVG/1.1/DTD/svg11.dtd"><svg xmlns="http://www.w3.org/2000/svg" xmlns:xlink="http://www.w3.org/1999/xlink" version="1.1" id="mdi-controller-classic" width="24" height="24" viewBox="0 0 24 24"><path d="M6,7H18A5,5 0 0,1 23,12A5,5 0 0,1 18,17C16.36,17 14.91,16.21 14,15H10C9.09,16.21 7.64,17 6,17A5,5 0 0,1 1,12A5,5 0 0,1 6,7M19.75,9.5A1.25,1.25 0 0,0 18.5,10.75A1.25,1.25 0 0,0 19.75,12A1.25,1.25 0 0,0 21,10.75A1.25,1.25 0 0,0 19.75,9.5M17.25,12A1.25,1.25 0 0,0 16,13.25A1.25,1.25 0 0,0 17.25,14.5A1.25,1.25 0 0,0 18.5,13.25A1.25,1.25 0 0,0 17.25,12M5,9V11H3V13H5V15H7V13H9V11H7V9H5Z" /></svg>
